static/fa/svgs/solid/spray-can-sparkles.svg

<svg xmlns="http://www.w3.org/2000/svg" viewBox="0 0 512 512"><!--! Font Awesome Free 6.1.1 by @fontawesome - https://fontawesome.com License - https://fontawesome.com/license/free (Icons: CC BY 4.0, Fonts: SIL OFL 1.1, Code: MIT License) Copyright 2022 Fonticons, Inc.--><path d="M96 32c0-17.67 14.3-32 32-32h64c17.7 0 32 14.33 32 32v96H96V32zm128 128c53 0 96 42.1 96 96v208c0 26.5-21.5 48-48 48H48c-26.51 0-48-21.5-48-48V256c0-53.9 42.98-96 96-96h128zm-64 256c44.2 0 80-35.8 80-80s-35.8-80-80-80-80 35.8-80 80 35.8 80 80 80zM384 48c0 1.36-1 2.97-2.2 3.58L352 64l-12.4 29.78C338.1 95 337.4 96 336 96s-3-1-3.6-2.22L320 64l-29.8-12.42c-2.1-.61-2.2-2.22-2.2-3.58 0-1.38.1-2.97 2.2-3.58L320 32l12.4-29.781C333 1 334.6 0 336 0s2.1 1 3.6 2.219L352 32l29.8 12.42c1.2.61 2.2 2.2 2.2 3.58zm76.4 45.78L448 64l-29.8-12.42c-2.1-.61-2.2-2.22-2.2-3.58 0-1.38.1-2.97 2.2-3.58L448 32l12.4-29.781C461 1 462.6 0 464 0s2.1 1 3.6 2.219L480 32l29.8 12.42c1.2.61 2.2 2.2 2.2 3.58 0 1.36-1 2.97-2.2 3.58L480 64l-12.4 29.78C466.1 95 465.4 96 464 96s-3-1-3.6-2.22zm7.2 100.42L480 224l29.8 12.4c1.2.6 2.2 2.2 2.2 3.6s-1 2.1-2.2 3.6L480 256l-12.4 29.8c-1.5 1.2-2.2 2.2-3.6 2.2s-3-1-3.6-2.2L448 256l-29.8-12.4c-2.1-1.5-2.2-2.2-2.2-3.6s.1-3 2.2-3.6L448 224l12.4-29.8c.6-1.2 2.2-2.2 3.6-2.2s2.1 1 3.6 2.2zM448 144c0 1.4-1 2.1-2.2 3.6L416 160l-12.4 29.8c-1.5 1.2-2.2 2.2-3.6 2.2s-3-1-3.6-2.2L384 160l-29.8-12.4c-2.1-1.5-2.2-2.2-2.2-3.6s.1-3 2.2-3.6L384 128l12.4-29.78C397 97 398.6 96 400 96s2.1 1 3.6 2.22L416 128l29.8 12.4c1.2.6 2.2 2.2 2.2 3.6z"/></svg>

<svg xmlns="http://www.w3.org/2000/svg" viewBox="0 0 512 512"><!--! Font Awesome Free 6.1.1 by @fontawesome - https://fontawesome.com License - https://fontawesome.com/license/free (Icons: CC BY 4.0, Fonts: SIL OFL 1.1, Code: MIT License) Copyright 2022 Fonticons, Inc. --><path d="M96 32C96 14.33 110.3 0 128 0H192C209.7 0 224 14.33 224 32V128H96V32zM224 160C277 160 320 202.1 320 256V464C320 490.5 298.5 512 272 512H48C21.49 512 0 490.5 0 464V256C0 202.1 42.98 160 96 160H224zM160 416C204.2 416 240 380.2 240 336C240 291.8 204.2 256 160 256C115.8 256 80 291.8 80 336C80 380.2 115.8 416 160 416zM384 48C384 49.36 383 50.97 381.8 51.58L352 64L339.6 93.78C338.1 95 337.4 96 336 96C334.6 96 333 95 332.4 93.78L320 64L290.2 51.58C288.1 50.97 288 49.36 288 48C288 46.62 288.1 45.03 290.2 44.42L320 32L332.4 2.219C333 1 334.6 0 336 0C337.4 0 338.1 1 339.6 2.219L352 32L381.8 44.42C383 45.03 384 46.62 384 48zM460.4 93.78L448 64L418.2 51.58C416.1 50.97 416 49.36 416 48C416 46.62 416.1 45.03 418.2 44.42L448 32L460.4 2.219C461 1 462.6 0 464 0C465.4 0 466.1 1 467.6 2.219L480 32L509.8 44.42C511 45.03 512 46.62 512 48C512 49.36 511 50.97 509.8 51.58L480 64L467.6 93.78C466.1 95 465.4 96 464 96C462.6 96 461 95 460.4 93.78zM467.6 194.2L480 224L509.8 236.4C511 237 512 238.6 512 240C512 241.4 511 242.1 509.8 243.6L480 256L467.6 285.8C466.1 287 465.4 288 464 288C462.6 288 461 287 460.4 285.8L448 256L418.2 243.6C416.1 242.1 416 241.4 416 240C416 238.6 416.1 237 418.2 236.4L448 224L460.4 194.2C461 193 462.6 192 464 192C465.4 192 466.1 193 467.6 194.2zM448 144C448 145.4 447 146.1 445.8 147.6L416 160L403.6 189.8C402.1 191 401.4 192 400 192C398.6 192 397 191 396.4 189.8L384 160L354.2 147.6C352.1 146.1 352 145.4 352 144C352 142.6 352.1 141 354.2 140.4L384 128L396.4 98.22C397 97 398.6 96 400 96C401.4 96 402.1 97 403.6 98.22L416 128L445.8 140.4C447 141 448 142.6 448 144z"/></svg>
